title_decor.svg

<svg xmlns="http://www.w3.org/2000/svg" fill="none" viewBox="0 0 1138 643"><path fill="#4F4E4E" d="M223 0l16.617 139.458 68.721-122.483-38.015 135.202 110.362-86.862-86.862 110.362 135.202-38.015-122.483 68.721L446 223l-139.458 16.617 122.483 68.721-135.202-38.015 86.862 110.362-110.362-86.862 38.015 135.202-68.721-122.483L223 446l-16.617-139.458-68.721 122.483 38.015-135.202-110.362 86.862 86.862-110.362-135.202 38.015 122.483-68.721L0 223l139.458-16.617-122.483-68.721 135.202 38.015L65.315 65.315l110.362 86.862-38.015-135.202 68.721 122.483L223 0z"/><path stroke="#fff" stroke-dasharray="3 7" stroke-width="2" d="M1017 506.5c0 74.835-60.665 135.5-135.5 135.5-74.835 0-135.5-60.665-135.5-135.5 0-74.835 60.665-135.5 135.5-135.5 74.835 0 135.5 60.665 135.5 135.5z" opacity=".78"/><path stroke="#fff" stroke-dasharray="3 7" stroke-width="2" d="M1069 506.5c0 74.835-60.67 135.5-135.5 135.5-74.835 0-135.5-60.665-135.5-135.5 0-74.835 60.665-135.5 135.5-135.5 74.83 0 135.5 60.665 135.5 135.5z" opacity=".78"/><path stroke="#fff" stroke-dasharray="3 7" stroke-width="2" d="M1137 506.5c0 74.835-60.67 135.5-135.5 135.5-74.835 0-135.5-60.665-135.5-135.5 0-74.835 60.665-135.5 135.5-135.5 74.83 0 135.5 60.665 135.5 135.5z" opacity=".78"/></svg>

<svg width="1138" height="643" viewBox="0 0 1138 643" fill="none" xmlns="http://www.w3.org/2000/svg">
<path d="M223 0L239.617 139.458L308.338 16.9749L270.323 152.177L380.685 65.3152L293.823 175.677L429.025 137.662L306.542 206.383L446 223L306.542 239.617L429.025 308.338L293.823 270.323L380.685 380.685L270.323 293.823L308.338 429.025L239.617 306.542L223 446L206.383 306.542L137.662 429.025L175.677 293.823L65.3152 380.685L152.177 270.323L16.9749 308.338L139.458 239.617L0 223L139.458 206.383L16.9749 137.662L152.177 175.677L65.3152 65.3152L175.677 152.177L137.662 16.9749L206.383 139.458L223 0Z" fill="#4F4E4E"/>
<path opacity="0.78" d="M1017 506.5C1017 581.335 956.335 642 881.5 642C806.665 642 746 581.335 746 506.5C746 431.665 806.665 371 881.5 371C956.335 371 1017 431.665 1017 506.5Z" stroke="white" stroke-width="2" stroke-dasharray="3 7"/>
<path opacity="0.78" d="M1069 506.5C1069 581.335 1008.33 642 933.5 642C858.665 642 798 581.335 798 506.5C798 431.665 858.665 371 933.5 371C1008.33 371 1069 431.665 1069 506.5Z" stroke="white" stroke-width="2" stroke-dasharray="3 7"/>
<path opacity="0.78" d="M1137 506.5C1137 581.335 1076.33 642 1001.5 642C926.665 642 866 581.335 866 506.5C866 431.665 926.665 371 1001.5 371C1076.33 371 1137 431.665 1137 506.5Z" stroke="white" stroke-width="2" stroke-dasharray="3 7"/>
</svg>
